X:1
T:Title
%%score ( 1 2 ) 3
L:1/8
Q:1/4=100
M:4/4
K:D
V:1 treble nm="Grand Piano, Soprano"
V:2 treble 
V:3 bass nm="Choir Pad, Over There (Wells)"
V:1
 [FA][FA] [Fd]2 [Ac]>[GB] [GB][FA] | [GB]>[EG] [DF]4 z2 | D>[DF] [FA]2 [EG]>[DF] [DF][CE] | %3
w: By~Arranged~from~John~William~Albert~Cluett * * * * * *|||
 [CG]>[A,C] [A,D]4 z2 | [FA][FA] [Fd]2 [Ac]>[GB] [GB][FA] | [GB]>[EG] [DF]4 z2 | %6
w: |||
 D>[DF] [FA]2 [EG]>[DF] [DF][CE] | [CG]>[A,C] [A,D]4 z2 | [DF]>[DF] [EG]2 [DF][CE] [Ec]2 | %9
w: |||
 [GB][Gc] [Fd]2 [FA]>[=F^G] [^FA]2 | D[DF] [CA]2 [EG]>[DF] [DF][CE] | [GB]>[FA] D4 z2 | z4 z2 .B2 | %13
w: ||||
 [GB]>[EG] [DF]2 [FA]>[=F^G] [^FA]2 | [FA]>[FA] [GA]6 | [Ec]>[Gc] [Fd]6- | [Fd]2 z2 z4 |] %17
w: ||||
V:2
 x8 | x8 | x8 | x8 | x8 | x8 | x8 | x8 | x8 | x8 | x8 | x8 | [FA]>[FA] [Fd]2 [Ac]>[GB] G-[GA] | %13
 x8 | x8 | x8 | x8 |] %17
V:3
 [D,A,][D,A,] [D,A,]2 [D,A,]>[D,D] [D,D]2 | [D,D]>[D,B,] [D,A,]4 z2 | %2
 [D,F,]>[D,A,] [D,A,]2 [A,,A,]>[A,,A,] [A,,A,]2 | [A,,A,]>[A,,G,] [D,F,]4 z2 | %4
 [D,A,][D,A,] [D,A,]2 [D,A,]>[D,D] [D,D]2 | [D,D]>[D,B,] [D,A,]4 z2 | %6
 [D,F,]>[D,A,] [D,A,]2 [A,,A,]>[A,,A,] [A,,A,]2 | [A,,A,]>[A,,G,] [D,F,]4 z2 | %8
 [D,A,]>[D,A,] [A,,A,]2 [A,,A,][A,,A,] [A,,A,]2 | [A,,A,][A,,A,] [D,A,]2 [D,D]>[D,D] [D,D]2 | %10
 [D,F,][D,A,] [A,,A,]2 [A,,A,]>[A,,A,] [A,,A,]2 | [A,,A,]>[A,,A,] [D,F,]4 z2 | %12
 [D,A,]>[D,A,] [D,A,]2 [D,A,]>[D,D] [G,D]2 | [G,D]>[G,B,] [D,A,]6 | %14
 [D,D]>[D,D] [E,C]2 [E,C]>[E,C] [A,C]2 | [A,,A,]>[A,,A,] [D,A,]6- | [D,A,]2 z2 z4 |] %17

